Codeartpro/images/main/logo-5.svg

<svg width="159" height="31" viewBox="0 0 159 31" fill="none" xmlns="http://www.w3.org/2000/svg">
<path opacity="0.6" fill-rule="evenodd" clip-rule="evenodd" d="M4.88337 0.851159H13.4433L13.637 21.5859C13.637 21.5859 13.6974 26.5954 10.6395 29.05C8.27011 30.9507 5.58791 31.0894 3.38504 30.7143C1.19917 30.3442 0 29.4778 0 29.4778V22.3453C0 22.3453 0.773383 22.9636 1.83657 23.2969C2.90061 23.6295 3.60006 23.8926 4.54512 22.9644C5.02869 22.4899 4.9811 20.9685 4.9811 20.9685L4.88337 0.851159ZM13.9974 20.8732C13.9974 20.8732 12.805 31 24.5418 31C35.3802 31 34.7921 21.4263 34.7921 20.4914C34.7921 19.5582 34.696 0.806878 34.696 0.806878H26.1353L26.1846 20.0637C26.1846 20.0637 26.4251 23.0597 24.3463 23.0597C22.2675 23.0597 22.5582 20.255 22.5582 20.255L22.4128 0.855335H13.8521L13.9974 20.8732ZM51.2439 9.60607L51.1903 2.04421C51.1903 2.04421 47.586 0.232906 43.765 0.232906C38.5621 0.232906 36.3669 4.01425 36.3669 4.01425C36.3669 4.01425 34.3739 6.74291 35.0632 10.3572C35.5196 12.7474 36.4306 14.0458 38.4066 15.959C39.3074 16.8321 41.0276 18.1997 41.484 18.6484C41.9403 19.097 43.5211 20.0645 43.2695 21.6736C43.1064 22.7246 42.5106 23.4507 40.4964 23.3922C37.951 23.317 34.9875 20.8891 34.9875 20.8891L35.0258 28.6206C35.0258 28.6206 38.4074 31.0401 42.016 30.9733C46.0427 30.8981 47.9804 29.5914 49.3104 28.5454C51.2991 26.9822 52.8433 23.6161 52.3122 19.9183C51.7802 16.2205 48.3994 13.7935 47.4492 13.0089C46.4991 12.2244 44.3718 10.6939 43.9919 9.83415C43.612 8.97529 44.3336 7.59342 45.1316 7.48146C45.9296 7.36951 47.2546 6.73037 51.2439 9.60607ZM51.5728 8.28101H56.6091V30.3241H65.1257V8.28101H69.9164V0.839463H51.5728V8.28101ZM135.155 8.28101H140.191V30.3241H148.708V8.28101H153.499V0.839463H135.155V8.28101ZM75.772 30.3784H85.1172C87.0558 30.3784 97.0851 29.9314 97.0851 15.0918C97.0851 0.58882 86.03 0.869536 86.03 0.869536H75.829L75.772 30.3784ZM84.4339 8.7071C84.4339 8.7071 85.6323 8.59515 86.1439 8.87586C86.6581 9.15575 88.2533 10.0514 88.2533 15.9306C88.2533 21.8115 86.9419 22.5408 86.0869 22.9878C85.232 23.4348 84.377 23.2117 84.377 23.2117L84.4339 8.7071ZM108.826 0.028219C108.826 0.028219 97.3707 -0.363616 97.3707 15.2037C97.3707 32.0585 108.826 30.9373 108.826 30.9373C108.826 30.9373 120.679 32.4504 120.679 15.5396C120.679 -1.37119 108.826 0.028219 108.826 0.028219ZM108.882 7.30768C109.68 7.30768 111.618 6.74876 111.618 15.5404C111.618 24.1625 109.339 23.378 108.939 23.378C108.541 23.378 106.147 23.9394 106.147 15.5964C106.146 7.0278 108.084 7.30768 108.882 7.30768ZM125.979 30.3224H134.584V0.868701H125.864L125.979 30.3224ZM149.406 26.237C149.406 28.5671 151.356 30.9624 154.169 30.9624C156.631 30.9624 159 29.2422 159 26.2153C159 24.0372 157.14 21.5324 154.169 21.5324C151.954 21.5324 149.406 23.2961 149.406 26.237Z" fill="white"/>
</svg>

<svg width="159" height="31" fill="none" xmlns="http://www.w3.org/2000/svg"><path opacity=".6" fill-rule="evenodd" clip-rule="evenodd" d="M4.883.851h8.56l.194 20.735s.06 5.01-2.998 7.464c-2.369 1.9-5.051 2.04-7.254 1.664C1.199 30.344 0 29.478 0 29.478v-7.133s.773.619 1.837.952c1.064.332 1.763.596 2.708-.333.484-.474.436-1.995.436-1.995L4.883.85zm9.114 20.022S12.805 31 24.542 31c10.838 0 10.25-9.574 10.25-10.509 0-.933-.096-19.684-.096-19.684h-8.56l.049 19.257s.24 2.996-1.839 2.996c-2.079 0-1.788-2.805-1.788-2.805l-.145-19.4h-8.56l.144 20.018zM51.244 9.606l-.054-7.562S47.586.233 43.765.233c-5.203 0-7.398 3.781-7.398 3.781s-1.993 2.729-1.304 6.343c.457 2.39 1.368 3.689 3.344 5.602.9.873 2.62 2.24 3.077 2.69.456.448 2.037 1.415 1.785 3.025-.163 1.05-.758 1.777-2.773 1.718-2.545-.075-5.509-2.503-5.509-2.503l.039 7.732s3.381 2.42 6.99 2.352c4.027-.075 5.964-1.382 7.294-2.428 1.99-1.563 3.533-4.929 3.002-8.627-.532-3.697-3.913-6.124-4.863-6.91-.95-.784-3.077-2.314-3.457-3.174-.38-.859.342-2.24 1.14-2.353.798-.111 2.123-.75 6.112 2.125zm.329-1.325h5.036v22.043h8.517V8.281h4.79V.839H51.573v7.442zm83.582 0h5.036v22.043h8.517V8.281h4.791V.839h-18.344v7.442zM75.772 30.378h9.345c1.939 0 11.968-.447 11.968-15.286C97.085.589 86.03.87 86.03.87H75.829l-.057 29.508zm8.662-21.67s1.198-.113 1.71.168c.514.28 2.11 1.175 2.11 7.055s-1.312 6.61-2.167 7.057c-.855.447-1.71.224-1.71.224l.057-14.505zm24.392-8.68S97.371-.364 97.371 15.204c0 16.855 11.455 15.733 11.455 15.733s11.853 1.513 11.853-15.397c0-16.911-11.853-15.512-11.853-15.512zm.056 7.28c.798 0 2.736-.56 2.736 8.232 0 8.623-2.279 7.838-2.679 7.838-.398 0-2.792.561-2.792-7.782-.001-8.568 1.937-8.288 2.735-8.288zm17.097 23.014h8.605V.87h-8.72l.115 29.453zm23.427-4.085c0 2.33 1.95 4.725 4.763 4.725 2.462 0 4.831-1.72 4.831-4.747 0-2.178-1.86-4.683-4.831-4.683-2.215 0-4.763 1.764-4.763 4.705z" fill="#fff"/></svg>
